X: 22
T: Swallowtail, The
Z: Ealasaid NicIlleBhrìgid
S: https://thesession.org/tunes/106#setting53905
R: jig
M: 6/8
L: 1/8
K: Edor
V:1
|:"Em"GEE BEE|GEE BAG|"D"FDD ADD|dcd AGF|
"Em"GEE BEE|GEE B2c|"D"dcd AGF|1"Em"GEE E2 {E}F:|2"Em"GEE E2B||
|:"Em"Bcd e2f|e2f edB|Bcd e2f|edB "D"d2B|
"Em"Bcd e2f|e2f edB|"D"dcd AGF|1"Em"GEE E2B:|2"Em"GEE E3||
V:2
|:"Em"EB,B, GB,B,|EB,B, GFE|"D"DA,A, FA,A,|A3 FED|
"Em"EB,B, GB,B,|EB,B, G3|"D"A3 FED|1"Em"EB,A, G,2 {B,}^D :|2"Em"EB,A, G,2E||
|:"Em"EFG G2A|G2A GFE|EFG G2A|GFE "D"F2E|
"Em"EFG G2A|G2A GFE|"D"A3 FED|1"Em"EB,A, G,2E:|2"Em"EB,A, G,3||

